X:83
T:Reel Arthur
C:Marcel Messervier
Z:robin.beech@mcgill.ca
M:4/4
L:1/8
K:A
E2 |: A2Ac B2A2 | ABcA eABc | d2fd c2ec | BABc B2E2
A2Ac B2A2 | ABcA eABc | d2fd c2ec |1 BABc  A2E2 :|2 BABc A2cd |: 
ecAc e2dc | fdAd f2ed | ceAc e2Bc | dBBA B2cd | 
ecAc e2de | fdAd f2ed | ceAc BABc |1 Afec A2cd :|2 Afec A2E2 |]

